X:521
T: Yongjun Huagunge
N: C1939
O: China,Henan Xiayiluyi
S: IV, 118]
R: Xiaodiao, Salajin diao]
M: 2/4
L: 1/16
K: F
F2FDC3D | F2FDC4 | c2f2c2A2 | c3AG4 |
G2A2c2d2 | A2G2F4 | G3AF2D2 | F3DC4 |
F2FDC2D2 | F2FDC4 | c2f2c2A2 | G3Ac4 |
F2FDC3D | F2FDC4 | c2cAG2F2 | D2F2C4 |
F2F2D2F2 | G8 |
G2A2c3d | A2G2F4 | G2A2D2F2 | G2G2F2FD | C8

@@@ Tune index: 7076
